!!!OTL: Rund.
!!!OTL-incipit: LUSTIG GERUESTET
!!!ARE: Europa, Mitteleuropa, Deutschland
!!!SCT: F0762
!!!TXL: @@DE
!!!YEM: Copyright 1995, estate of Helmut Schaffrath.
**kern	**text
*ICvox	*
*clefG2	*
*M4/4	*
*met(c)	*
*k[f#c#g#d#]	*
*E:	*
=1	=1
!LO:TX:a:t=Raſch.	!
!LO:TX:a:t=P:only the highest voice encoded:problem	!
{4ee	1._Lu-
8b	-ſtig
8b	ge-
4ee/	-rü-
8b/	-ſtet
8b/	das
=2	=2
(>8aL	Herʒ
8g#J)	.
8f#	und
8e	den
2b/}	Mund!
=3	=3
!LO:TX:a:t=Das ʒweite Mal Alle.	!
{4e	Heid-
8g#	-ni-
8a	-ſche
4b/	Weisheit
8b/	.
8b/	und
=4	=4
(8cc#/L	chriſtli-
8bJ)	.
8a	.
8g#	-cher
4g#	Glau-
4f#}	-be
=5	=5
{4ee/	ſi-
8ee/	-tʒen
8ee/	in
4ee/	Eintracht
8e	.
8e	bei'm
=6	=6
8eL	Nektar
8g#J	.
8b/	.
8cc#/	der
8b/L	Traube;
8aJ	.
4g#}	.
=7	=7
{4b/	rund
8b/	heißt
8b/	die
4b/	Loſung;
8cc#/	.
8a	auf,
=8	=8
4g#	ſin-
8a	-get
8f#	ſie
2e}	rund!
=9	=9
{4e	Heid-
8g#	-ni-
8a	-ſche
4b/	Weisheit
8b/	.
8b/	und
=10	=10
(8cc#/L	chriſtli-
8bJ)	.
8a	.
8g#	-cher
4g#	Glau-
4f#}	-be
=11	=11
{4ee/	ſi-
8ee/	-tʒen
8ee/	in
4ee/	Eintracht
8e	.
8e	bei'm
=12	=12
8eL	Nektar
8g#J	.
8b/	.
8cc#/	der
8b/L	Traube;
8aJ	.
4g#}	.
=13	=13
{4b/	rund
8b/	heißt
8b/	die
4b/	Loſung;
8cc#/	.
8a	auf,
=14	=14
4g#	ſin-
8a	-get
8f#	ſie
2e}	rund!
==;	==;
!!!AGN: Geselligkeits -, Bundes - Lied, Rundgesang
!!!ONB: ESAC (Essen Associative Code) Database: FINK
!!!AMT: simple quadruple
!!!AIN: vox
!!!EED: Helmut Schaffrath
!!!EEV: 1.0
!!Text: G. M. Arndt
!!!RDF**kern: > = above
!!!GTL: Liedertafel- und Gesellschaftslieder
!!!source: Musikalischer Hausschatz der Deutschen. Eine Sammlung von über 1000 Liedern und Gesängen mit Singstimmen und Klavierbegleitung. Leipzig, Litterarisches Verlags-Haus.
!!!page: 524
!!!URL-scan: https://www.digitale-sammlungen.de/en/view/bsb11144622?page=474
!!!ENC: Anna Maria Matuszewska
!!!EEV: 2024/08/06
*-	*-
